Newaita-dark/.DP/22/network-wireless-secure-signal-low.svg

<?xml version="1.0" encoding="UTF-8"?>
<svg xmlns="http://www.w3.org/2000/svg" xmlns:xlink="http://www.w3.org/1999/xlink" width="22pt" height="22pt" viewBox="0 0 22 22" version="1.1">
<g id="surface1">
<path style=" stroke:none;fill-rule:nonzero;fill:rgb(74.117649%,74.117649%,74.117649%);fill-opacity:0.392157;" d="M 10.914062 3.015625 C 7.28125 3.015625 3.949219 4.253906 1.316406 6.335938 L 2.867188 8.59375 C 5.058594 6.808594 7.859375 5.742188 10.914062 5.742188 C 13.972656 5.742188 16.769531 6.808594 18.960938 8.59375 L 20.511719 6.335938 C 17.878906 4.253906 14.546875 3.015625 10.914062 3.015625 Z M 10.914062 3.015625 "/>
<path style=" stroke:none;fill-rule:nonzero;fill:rgb(74.117649%,74.117649%,74.117649%);fill-opacity:0.392157;" d="M 10.914062 8.472656 C 8.433594 8.472656 6.167969 9.367188 4.421875 10.851562 L 5.980469 13.121094 C 7.277344 11.925781 9.007812 11.199219 10.914062 11.199219 C 12.824219 11.199219 14.554688 11.925781 15.847656 13.121094 L 17.40625 10.851562 C 15.664062 9.367188 13.398438 8.472656 10.914062 8.472656 Z M 10.914062 8.472656 "/>
<path style=" stroke:none;fill-rule:nonzero;fill:rgb(74.117649%,74.117649%,74.117649%);fill-opacity:1;" d="M 10.914062 12.453125 C 9.65625 12.453125 8.640625 13.464844 8.640625 14.726562 C 8.640625 15.660156 9.199219 16.460938 10.003906 16.8125 L 10.003906 18.820312 C 10.003906 19.070312 10.207031 19.273438 10.460938 19.273438 L 11.371094 19.273438 C 11.621094 19.273438 11.824219 19.070312 11.824219 18.820312 L 11.824219 16.8125 C 12.628906 16.460938 13.1875 15.660156 13.1875 14.726562 C 13.1875 13.464844 12.175781 12.453125 10.914062 12.453125 Z M 10.914062 12.453125 "/>
</g>
</svg>

<svg xmlns="http://www.w3.org/2000/svg" width="22pt" height="22pt" viewBox="0 0 22 22"><g fill="#bdbdbd"><path d="M10.914 3.016a15.408 15.408 0 0 0-9.598 3.32l1.551 2.258a12.691 12.691 0 0 1 8.047-2.852c3.059 0 5.856 1.067 8.047 2.852l1.55-2.258a15.408 15.408 0 0 0-9.597-3.32zm0 0" fill-opacity=".392"/><path d="M10.914 8.473c-2.48 0-4.746.894-6.492 2.379l1.558 2.27a7.248 7.248 0 0 1 4.934-1.923c1.91 0 3.64.727 4.934 1.922l1.558-2.27a9.969 9.969 0 0 0-6.492-2.378zm0 0" fill-opacity=".392"/><path d="M10.914 12.453a2.268 2.268 0 0 0-2.273 2.274c0 .933.558 1.734 1.363 2.085v2.008c0 .25.203.453.457.453h.91c.25 0 .453-.203.453-.453v-2.008a2.272 2.272 0 0 0 1.364-2.085 2.266 2.266 0 0 0-2.274-2.274zm0 0"/></g></svg>
